X:199
T: DER MOND IST AUFGEGANGEN
N: B0237
O: Europa, Mitteleuropa, Deutschland
R: Tageszeiten - Lied, Abend
M: 4/4
L: 1/4
K: G
G | AGcB | A2G
B | BBed | c2B
B | BBcB | A2z
G | AGcB | A2G
B | BBed | c2B
B | BBcB | AAG

@@@ Tune index: 2002
